X: 1
T: Flatbush
R: waltz
M: 3/4
L: 1/8
K: Gmin
d3gdc|B2{F}G2G2|d3gdB|c3edc|
GABcdB|{d}cGc2c2|B3c_AB|GG,B,DGB|
d3gdc|B2{F}G2G2|d3gdB|c3fe/d/c|
Bcdef/e/d|{d}cGc2c2|B3c_AB|GG,B,DGB||
[d4b4][ca][Bg]|[ca]D^FAdf|[B2g2][A3f3][Ge]|[F6d6]|
[G2e2][F2d2][E2c2]|[F2d2][B2g2][c2a2]|\
[d3b3][ca][Bb][dc']|[c6a6]|
[d4b4][ca][Bg]|[ca]D^FAdf|[B2g2][A3f3][Ge]|[F6d6]|
[_A2e2][A2d2][E2c2]|[F2d2][B,2G2][E2c2]|\
[D3B3][Ec][C_A][DB]|[B,6G6]|]


Tune 3809	Setting 25981

